symbols-de/shields/motorway_7x3_z18.svg

<?xml version="1.0" encoding="UTF-8" standalone="no"?>
<svg
   xmlns:dc="http://purl.org/dc/elements/1.1/"
   xmlns:cc="http://creativecommons.org/ns#"
   xmlns:rdf="http://www.w3.org/1999/02/22-rdf-syntax-ns#"
   xmlns:svg="http://www.w3.org/2000/svg"
   xmlns="http://www.w3.org/2000/svg"
   xmlns:sodipodi="http://sodipodi.sourceforge.net/DTD/sodipodi-0.dtd"
   xmlns:inkscape="http://www.inkscape.org/namespaces/inkscape"
   width="100%"
   height="100%"
   viewBox="0 0 60.0 39.0"
   id="svg2"
   version="1.1"
   inkscape:version="0.91 r13725"
   sodipodi:docname="autobahn_7x3_z18.svg">
  <metadata
     id="metadata9">
    <rdf:RDF>
      <cc:Work
         rdf:about="">
        <dc:format>image/svg+xml</dc:format>
        <dc:type
           rdf:resource="http://purl.org/dc/dcmitype/StillImage" />
        <dc:title></dc:title>
      </cc:Work>
    </rdf:RDF>
  </metadata>
  <defs
     id="defs7" />
  <sodipodi:namedview
     pagecolor="#ffffff"
     bordercolor="#666666"
     borderopacity="1"
     objecttolerance="10"
     gridtolerance="10"
     guidetolerance="10"
     inkscape:pageopacity="0"
     inkscape:pageshadow="2"
     inkscape:window-width="1145"
     inkscape:window-height="729"
     id="namedview5"
     showgrid="false"
     inkscape:zoom="5.8833333"
     inkscape:cx="30"
     inkscape:cy="19.5"
     inkscape:window-x="331"
     inkscape:window-y="185"
     inkscape:window-maximized="0"
     inkscape:current-layer="svg2" />
  <path
     style="fill:#365eaf;fill-opacity:1;stroke:#0528a2;stroke-width:1;stroke-miterlimit:4;stroke-dasharray:none;stroke-opacity:1"
     d="m 30,0.5000045 c -0.422937,0 -0.63379,0.003909 -0.63379,0.0139189 L 1.4529003,2.6152396 C 0.81849184,2.7159939 0.5,2.8683098 0.5,3.0698292 l 0,32.8603468 c 0,0.201519 0.31849184,0.35383 0.9529003,0.454589 L 29.36621,38.486083 c 0,0.0101 0.210859,0.01392 0.63379,0.01392 0.42294,0 0.63379,-0.0038 0.63379,-0.01392 L 58.5471,36.384764 c 0.634412,-0.100765 0.813819,-0.266673 0.9529,-0.454589 0,-17.646727 0,-17.269568 0,-32.860348 0,-0.2015183 -0.318488,-0.3538331 -0.9529,-0.4545885 L 30.63379,0.51391901 c 0,-0.0100971 -0.210858,-0.0139188 -0.63379,-0.0139188 z"
     id="path6"
     inkscape:connector-curvature="0"
     sodipodi:nodetypes="sccccccsccccccs" />
</svg>

<?xml version="1.0" encoding="UTF-8"?>
<svg xmlns="http://www.w3.org/2000/svg" xmlns:xlink="http://www.w3.org/1999/xlink" width="58pt" height="51pt" viewBox="0 0 58 51" version="1.1">
<g id="surface1">
<path style="fill-rule:nonzero;fill:rgb(21.176471%,36.862745%,68.627451%);fill-opacity:1;stroke-width:1;stroke-linecap:butt;stroke-linejoin:miter;stroke:rgb(1.960784%,15.686275%,63.529412%);stroke-opacity:1;stroke-miterlimit:4;" d="M 30 0.498851 C 29.5757 0.498851 29.365571 0.504825 29.365571 0.513787 L 1.454741 2.616728 C 0.820312 2.715303 0.501078 2.867647 0.501078 3.070772 L 0.501078 35.929228 C 0.501078 36.132353 0.820312 36.284697 1.454741 36.383272 L 29.365571 38.486213 C 29.365571 38.495175 29.5757 38.501149 30 38.501149 C 30.4243 38.501149 30.634429 38.495175 30.634429 38.486213 L 58.545259 36.383272 C 59.179688 36.284697 59.36153 36.117417 59.498922 35.929228 C 59.498922 18.284237 59.498922 18.660616 59.498922 3.070772 C 59.498922 2.867647 59.179688 2.715303 58.545259 2.616728 L 30.634429 0.513787 C 30.634429 0.504825 30.4243 0.498851 30 0.498851 Z M 30 0.498851 " transform="matrix(0.966667,0,0,1.307692,0,0)"/>
</g>
</svg>
